humanity-icon-theme/Humanity/apps/48/preferences-desktop-screensaver.svg

<?xml version="1.0" encoding="UTF-8" standalone="no"?>
<!-- Created with Inkscape (http://www.inkscape.org/) -->

<svg
   xmlns:svg="http://www.w3.org/2000/svg"
   xmlns="http://www.w3.org/2000/svg"
   xmlns:xlink="http://www.w3.org/1999/xlink"
   version="1.0"
   width="48"
   height="48"
   id="svg2">
  <defs
     id="defs4">
    <linearGradient
       id="linearGradient14414">
      <stop
         id="stop14422"
         style="stop-color:white;stop-opacity:1"
         offset="0" />
      <stop
         id="stop14418"
         style="stop-color:white;stop-opacity:0"
         offset="1" />
    </linearGradient>
    <linearGradient
       id="linearGradient10691">
      <stop
         id="stop10693"
         style="stop-color:black;stop-opacity:1"
         offset="0" />
      <stop
         id="stop10695"
         style="stop-color:black;stop-opacity:0"
         offset="1" />
    </linearGradient>
    <linearGradient
       id="linearGradient6732">
      <stop
         id="stop6734"
         style="stop-color:#505050;stop-opacity:1"
         offset="0" />
      <stop
         id="stop6736"
         style="stop-color:#a0a0a0;stop-opacity:1"
         offset="0.35046947" />
      <stop
         id="stop6738"
         style="stop-color:#aaa;stop-opacity:1"
         offset="0.58326507" />
      <stop
         id="stop6740"
         style="stop-color:#bebebe;stop-opacity:1"
         offset="0.72270131" />
      <stop
         id="stop6742"
         style="stop-color:#6e6e6e;stop-opacity:1"
         offset="1" />
    </linearGradient>
    <linearGradient
       id="linearGradient6718">
      <stop
         id="stop6720"
         style="stop-color:#0c131b;stop-opacity:1"
         offset="0" />
      <stop
         id="stop6722"
         style="stop-color:#243b53;stop-opacity:1"
         offset="1" />
    </linearGradient>
    <linearGradient
       id="linearGradient6712">
      <stop
         id="stop6714"
         style="stop-color:#243b53;stop-opacity:1"
         offset="0" />
      <stop
         id="stop6716"
         style="stop-color:#121d29;stop-opacity:1"
         offset="1" />
    </linearGradient>
    <linearGradient
       id="linearGradient6620">
      <stop
         id="stop6622"
         style="stop-color:#787878;stop-opacity:1"
         offset="0" />
      <stop
         id="stop6624"
         style="stop-color:#bebebe;stop-opacity:1"
         offset="0.35046947" />
      <stop
         id="stop6626"
         style="stop-color:#c8c8c8;stop-opacity:1"
         offset="0.58326507" />
      <stop
         id="stop6628"
         style="stop-color:#e6e6e6;stop-opacity:1"
         offset="0.72270131" />
      <stop
         id="stop6630"
         style="stop-color:#8c8c8c;stop-opacity:1"
         offset="1" />
    </linearGradient>
    <linearGradient
       id="linearGradient6544">
      <stop
         id="stop6546"
         style="stop-color:#f0f0f0;stop-opacity:1"
         offset="0" />
      <stop
         id="stop6548"
         style="stop-color:#d2d2d2;stop-opacity:1"
         offset="1" />
    </linearGradient>
    <linearGradient
       id="linearGradient6592">
      <stop
         id="stop6594"
         style="stop-color:white;stop-opacity:0.27450982"
         offset="0" />
      <stop
         id="stop6596"
         style="stop-color:white;stop-opacity:0"
         offset="1" />
    </linearGradient>
    <linearGradient
       id="linearGradient6602">
      <stop
         id="stop6604"
         style="stop-color:white;stop-opacity:1"
         offset="0" />
      <stop
         id="stop6606"
         style="stop-color:white;stop-opacity:0"
         offset="1" />
    </linearGradient>
    <radialGradient
       cx="24.5"
       cy="12.5"
       r="2.5"
       fx="24.5"
       fy="12.5"
       id="radialGradient6101"
       xlink:href="#linearGradient14414"
       gradientUnits="userSpaceOnUse"
       gradientTransform="matrix(1.178401,0,0,1.2065371,-18.37082,8.4182833)" />
    <radialGradient
       cx="24.5"
       cy="12.5"
       r="2.5"
       fx="24.5"
       fy="12.5"
       id="radialGradient6103"
       xlink:href="#linearGradient14414"
       gradientUnits="userSpaceOnUse"
       gradientTransform="matrix(1.178401,0,0,1.2065371,-15.37082,-3.5817159)" />
    <radialGradient
       cx="24.5"
       cy="12.5"
       r="2.5"
       fx="24.5"
       fy="12.5"
       id="radialGradient6105"
       xlink:href="#linearGradient14414"
       gradientUnits="userSpaceOnUse"
       gradientTransform="matrix(1.178401,0,0,1.2065371,-9.370819,3.4182833)" />
    <radialGradient
       cx="24.5"
       cy="12.5"
       r="2.5"
       fx="24.5"
       fy="12.5"
       id="radialGradient6107"
       xlink:href="#linearGradient14414"
       gradientUnits="userSpaceOnUse"
       gradientTransform="matrix(1.178401,0,0,1.2065371,-1.37082,-1.1158915)" />
    <linearGradient
       x1="12.9375"
       y1="8.4375"
       x2="15.25"
       y2="19.8125"
       id="linearGradient6112"
       xlink:href="#linearGradient6592"
       gradientUnits="userSpaceOnUse"
       gradientTransform="matrix(0.904762,0,0,1.1999992,2.2857142,2.4000022)" />
    <radialGradient
       cx="12.244348"
       cy="4.8630676"
       r="20.999998"
       fx="12.244348"
       fy="4.8630676"
       id="radialGradient6121"
       xlink:href="#linearGradient6712"
       gradientUnits="userSpaceOnUse"
       gradientTransform="matrix(1.3155525,0.01927686,-0.01224879,1.0775744,-3.2306064,6.0779115)" />
    <linearGradient
       x1="24.875"
       y1="29"
       x2="24.999996"
       y2="3.0000005"
       id="linearGradient6123"
       xlink:href="#linearGradient6718"
       gradientUnits="userSpaceOnUse"
       gradientTransform="matrix(0.9512102,0,0,1.0799846,1.1709571,1.720238)" />
    <radialGradient
       cx="0.99999994"
       cy="5.5642838"
       r="22.999998"
       fx="0.99999994"
       fy="5.5642838"
       id="radialGradient6126"
       xlink:href="#linearGradient6602"
       gradientUnits="userSpaceOnUse"
       gradientTransform="matrix(0.9555509,0,0,0.6971467,1.0667785,7.8456642)" />
    <linearGradient
       x1="20.147005"
       y1="-0.00049710274"
       x2="20.103531"
       y2="31.98299"
       id="linearGradient6129"
       xlink:href="#linearGradient6544"
       gradientUnits="userSpaceOnUse"
       gradientTransform="matrix(0.959002,0,0,1.0656257,0.9836815,1.9502578)" />
    <radialGradient
       cx="24.000004"
       cy="38.641167"
       r="7.9999971"
       fx="24.000004"
       fy="38.641167"
       id="radialGradient6132"
       xlink:href="#linearGradient6602"
       gradientUnits="userSpaceOnUse"
       gradientTransform="matrix(1.8286406,-3.1440363e-8,0,0.4381505,-19.887387,26.069353)" />
    <linearGradient
       x1="320.28125"
       y1="86.913208"
       x2="320.28125"
       y2="93.379616"
       id="linearGradient6135"
       xlink:href="#linearGradient6620"
       gradientUnits="userSpaceOnUse"
       gradientTransform="matrix(0.9964089,0,0,1.0001438,-294.882,-51.012717)" />
    <linearGradient
       x1="21.71751"
       y1="35.909012"
       x2="21.686279"
       y2="42.361362"
       id="linearGradient6137"
       xlink:href="#linearGradient6732"
       gradientUnits="userSpaceOnUse" />
    <radialGradient
       cx="6.702713"
       cy="73.615715"
       r="7.228416"
       fx="6.702713"
       fy="73.615715"
       id="radialGradient6140"
       xlink:href="#linearGradient10691"
       gradientUnits="userSpaceOnUse"
       gradientTransform="matrix(1.9368007,0,0,0.4150287,11.018182,12.447365)" />
  </defs>
  <g
     id="g6912">
    <path
       d="m 38,43 c 0,1.656855 -6.268014,3 -14.000001,3 C 16.268013,46 10,44.656855 10,43 10,41.343146 16.268013,40 23.999999,40 31.731986,40 38,41.343146 38,43 l 0,0 z"
       id="path2589"
       style="opacity:0.5;fill:url(#radialGradient6140);fill-opacity:1;fill-rule:nonzero;stroke:none;stroke-width:0.80000001;marker:none;visibility:visible;display:inline;overflow:visible" />
    <path
       d="m 18.488603,31.499143 c 0,0 0,7.001 0,7.001 -0.02202,1.80223 -1.86851,3.00043 -1.86851,3.00043 -0.74866,0.08844 -1.12096,0.44607 -1.12096,1.00015 0,0.55408 0.50401,1.00014 1.12096,1.00014 l 14.7598,0 c 0.61695,0 1.12096,-0.44606 1.12096,-1.00014 0,-0.55408 -0.3723,-0.91171 -1.12096,-1.00015 0,0 -1.84649,-1.1982 -1.86851,-3.00043 0,0 0,-7.001 0,-7.001 l -11.02278,0 z"
       id="path4675"
       style="fill:url(#linearGradient6135);fill-opacity:1;stroke:url(#linearGradient6137);stroke-width:0.99827462;stroke-linecap:round;stroke-linejoin:round;stroke-miterlimit:4;stroke-opacity:1;stroke-dasharray:none;stroke-dashoffset:0.50000001;display:inline;enable-background:new" />
    <rect
       width="15.999994"
       height="1.0000002"
       rx="0.44444439"
       ry="0.50000012"
       x="16.000002"
       y="41.999954"
       id="rect4703"
       style="opacity:0.8;fill:url(#radialGradient6132);fill-opacity:1;stroke:none;display:inline;enable-background:new" />
    <rect
       width="44.99976"
       height="32.99976"
       rx="1"
       ry="1"
       x="1.5001197"
       y="2.5001206"
       id="rect2722"
       style="fill:url(#linearGradient6129);fill-opacity:1;stroke:#aaa;stroke-width:1.00023937;stroke-linecap:round;stroke-linejoin:round;stroke-miterlimit:4;stroke-opacity:1;stroke-dasharray:none;stroke-dashoffset:0.50000001" />
    <rect
       width="42.999718"
       height="30.999718"
       rx="0"
       ry="0"
       x="2.5001411"
       y="3.5001411"
       id="rect4642"
       style="fill:none;stroke:url(#radialGradient6126);stroke-width:1.00028229;stroke-linecap:round;stroke-linejoin:round;stroke-miterlimit:4;stroke-opacity:1;stroke-dasharray:none;stroke-dashoffset:0.50000001;display:inline;enable-background:new" />
    <rect
       width="38.999599"
       height="26.999599"
       x="4.5002003"
       y="5.5002003"
       id="rect2716"
       style="fill:url(#radialGradient6121);fill-opacity:1;fill-rule:evenodd;stroke:url(#linearGradient6123);stroke-width:1.0004003;stroke-linecap:butt;stroke-linejoin:miter;stroke-miterlimit:4;stroke-opacity:1;stroke-dasharray:none;display:inline;enable-background:new" />
    <g
       id="g6063">
      <path
         d="M 10.505669,20 9.9999999,22.999999 7,23.42369 9.9999999,24 10.549864,27 11,24 14,23.534175 11,22.999999 10.505669,20 z"
         id="path18918"
         style="fill:url(#radialGradient6101);fill-opacity:1;fill-rule:evenodd;stroke:none" />
      <path
         d="m 36.923644,13.443368 c 0.424473,1.018082 0.647255,2.145006 0.647255,3.31947 0,4.697856 -3.751928,8.506144 -8.38026,8.506144 -1.351713,0 -2.616163,-0.32154 -3.747271,-0.899024 1.27342,3.054245 4.261757,5.186675 7.733004,5.186675 4.628332,0 8.380261,-3.80829 8.380261,-8.506145 0,-3.325839 -1.891124,-6.207273 -4.632989,-7.60712 z"
         id="path23408"
         style="opacity:0.7;fill:#eeeeec;fill-opacity:1;fill-rule:nonzero;stroke:white;stroke-width:0.88673532;stroke-linecap:butt;stroke-linejoin:round;stroke-miterlimit:4;stroke-opacity:0.2896175;stroke-dasharray:none;stroke-dashoffset:0" />
      <path
         d="M 13.505669,8.000001 13,11 l -3,0.423691 3,0.57631 0.549864,3 0.450136,-3 3,-0.465825 L 14,11 13.505669,8.000001 z"
         id="path6044"
         style="fill:url(#radialGradient6103);fill-opacity:1;fill-rule:evenodd;stroke:none" />
      <path
         d="M 19.50567,15 19,17.999999 16.000001,18.42369 19,19 l 0.549865,3 0.450136,-3 3,-0.465825 -3,-0.534176 L 19.50567,15 z"
         id="path6048"
         style="fill:url(#radialGradient6105);fill-opacity:1;fill-rule:evenodd;stroke:none" />
      <path
         d="M 27.505669,10.465825 27,13.465824 l -3,0.423691 3,0.57631 0.549864,3 0.450136,-3 L 31,14 28,13.465824 27.505669,10.465825 z"
         id="path6052"
         style="fill:url(#radialGradient6107);fill-opacity:1;fill-rule:evenodd;stroke:none" />
    </g>
    <path
       d="M 5,6 43,6 43,15.600005 5,24 5,6 z"
       id="rect6588"
       style="fill:url(#linearGradient6112);fill-opacity:1;stroke:none" />
  </g>
</svg>

<?xml version="1.0" encoding="UTF-8" standalone="no"?>
<!-- Created with Inkscape (http://www.inkscape.org/) -->
<svg id="svg2" xmlns="http://www.w3.org/2000/svg" height="48" width="48" version="1.0" xmlns:xlink="http://www.w3.org/1999/xlink">
 <defs id="defs4">
  <linearGradient id="linearGradient14414">
   <stop id="stop14422" style="stop-color:#fff" offset="0"/>
   <stop id="stop14418" style="stop-color:#fff;stop-opacity:0" offset="1"/>
  </linearGradient>
  <radialGradient id="radialGradient6101" xlink:href="#linearGradient14414" gradientUnits="userSpaceOnUse" cy="12.5" cx="24.5" gradientTransform="matrix(1.1784 0 0 1.2065 -18.371 8.4183)" r="2.5"/>
  <radialGradient id="radialGradient6103" xlink:href="#linearGradient14414" gradientUnits="userSpaceOnUse" cy="12.5" cx="24.5" gradientTransform="matrix(1.1784 0 0 1.2065 -15.371 -3.5817)" r="2.5"/>
  <radialGradient id="radialGradient6105" xlink:href="#linearGradient14414" gradientUnits="userSpaceOnUse" cy="12.5" cx="24.5" gradientTransform="matrix(1.1784 0 0 1.2065 -9.3708 3.4183)" r="2.5"/>
  <radialGradient id="radialGradient6107" xlink:href="#linearGradient14414" gradientUnits="userSpaceOnUse" cy="12.5" cx="24.5" gradientTransform="matrix(1.1784 0 0 1.2065 -1.3708 -1.1159)" r="2.5"/>
  <linearGradient id="linearGradient6112" y2="19.812" gradientUnits="userSpaceOnUse" x2="15.25" gradientTransform="matrix(.90476 0 0 1.2 2.2857 2.4)" y1="8.4375" x1="12.938">
   <stop id="stop6594" style="stop-color:#fff;stop-opacity:.27451" offset="0"/>
   <stop id="stop6596" style="stop-color:#fff;stop-opacity:0" offset="1"/>
  </linearGradient>
  <radialGradient id="radialGradient6121" gradientUnits="userSpaceOnUse" cy="4.8631" cx="12.244" gradientTransform="matrix(1.3156 .019277 -.012249 1.0776 -3.2306 6.0779)" r="21">
   <stop id="stop6714" style="stop-color:#243b53" offset="0"/>
   <stop id="stop6716" style="stop-color:#121d29" offset="1"/>
  </radialGradient>
  <linearGradient id="linearGradient6123" y2="3" gradientUnits="userSpaceOnUse" x2="25" gradientTransform="matrix(.95121 0 0 1.08 1.171 1.7202)" y1="29" x1="24.875">
   <stop id="stop6720" style="stop-color:#0c131b" offset="0"/>
   <stop id="stop6722" style="stop-color:#243b53" offset="1"/>
  </linearGradient>
  <radialGradient id="radialGradient6126" xlink:href="#linearGradient14414" gradientUnits="userSpaceOnUse" cy="5.5643" cx="1" gradientTransform="matrix(.95555 0 0 .69715 1.0668 7.8457)" r="23"/>
  <linearGradient id="linearGradient6129" y2="31.983" gradientUnits="userSpaceOnUse" x2="20.104" gradientTransform="matrix(0.959 0 0 1.0656 .98368 1.9503)" y1="-.00049710" x1="20.147">
   <stop id="stop6546" style="stop-color:#f0f0f0" offset="0"/>
   <stop id="stop6548" style="stop-color:#d2d2d2" offset="1"/>
  </linearGradient>
  <radialGradient id="radialGradient6132" xlink:href="#linearGradient14414" gradientUnits="userSpaceOnUse" cy="38.641" cx="24" gradientTransform="matrix(1.8286 -3.144e-8 0 .43815 -19.887 26.069)" r="8"/>
  <linearGradient id="linearGradient6135" y2="93.38" gradientUnits="userSpaceOnUse" x2="320.28" gradientTransform="matrix(.99641 0 0 1.0001 -294.88 -51.013)" y1="86.913" x1="320.28">
   <stop id="stop6622" style="stop-color:#787878" offset="0"/>
   <stop id="stop6624" style="stop-color:#bebebe" offset=".35047"/>
   <stop id="stop6626" style="stop-color:#c8c8c8" offset=".58327"/>
   <stop id="stop6628" style="stop-color:#e6e6e6" offset=".72270"/>
   <stop id="stop6630" style="stop-color:#8c8c8c" offset="1"/>
  </linearGradient>
  <linearGradient id="linearGradient6137" y2="42.361" gradientUnits="userSpaceOnUse" x2="21.686" y1="35.909" x1="21.718">
   <stop id="stop6734" style="stop-color:#505050" offset="0"/>
   <stop id="stop6736" style="stop-color:#a0a0a0" offset=".35047"/>
   <stop id="stop6738" style="stop-color:#aaa" offset=".58327"/>
   <stop id="stop6740" style="stop-color:#bebebe" offset=".72270"/>
   <stop id="stop6742" style="stop-color:#6e6e6e" offset="1"/>
  </linearGradient>
  <radialGradient id="radialGradient6140" gradientUnits="userSpaceOnUse" cy="73.616" cx="6.7027" gradientTransform="matrix(1.9368 0 0 .41503 11.018 12.447)" r="7.2284">
   <stop id="stop10693" offset="0"/>
   <stop id="stop10695" style="stop-opacity:0" offset="1"/>
  </radialGradient>
 </defs>
 <g id="g6912">
  <path id="path2589" style="opacity:.5;fill:url(#radialGradient6140)" d="m38 43c0 1.6569-6.268 3-14 3s-14-1.343-14-3 6.268-3 14-3 14 1.343 14 3z"/>
  <path id="path4675" style="stroke-linejoin:round;stroke-width:.99827;stroke-dashoffset:0.5;stroke:url(#linearGradient6137);stroke-linecap:round;enable-background:new;fill:url(#linearGradient6135)" d="m18.489 31.499v7.001c-0.02202 1.8022-1.8685 3.0004-1.8685 3.0004-0.74866 0.08844-1.121 0.44607-1.121 1.0002 0 0.55408 0.50401 1.0001 1.121 1.0001h14.76c0.61695 0 1.121-0.44606 1.121-1.0001 0-0.55408-0.3723-0.91171-1.121-1.0002 0 0-1.8465-1.1982-1.8685-3.0004v-7.001h-11.023z"/>
  <rect id="rect4703" style="opacity:.8;enable-background:new;fill:url(#radialGradient6132)" rx=".44444" ry="0.5" height="1" width="16" y="42" x="16"/>
  <rect id="rect2722" style="stroke-linejoin:round;stroke-dashoffset:0.5;stroke:#aaa;stroke-linecap:round;stroke-width:1.0002;fill:url(#linearGradient6129)" rx="1" ry="1" height="33" width="45" y="2.5001" x="1.5001"/>
  <rect id="rect4642" style="stroke-linejoin:round;stroke-width:1.0003;stroke-dashoffset:0.5;stroke:url(#radialGradient6126);stroke-linecap:round;enable-background:new;fill:none" rx="0" ry="0" height="31" width="43" y="3.5001" x="2.5001"/>
  <rect id="rect2716" style="stroke-width:1.0004;fill-rule:evenodd;stroke:url(#linearGradient6123);enable-background:new;fill:url(#radialGradient6121)" height="27" width="39" y="5.5002" x="4.5002"/>
  <g id="g6063">
   <path id="path18918" style="fill:url(#radialGradient6101);fill-rule:evenodd" d="m10.506 20-0.506 3-3 0.424 3 0.576 0.55 3 0.45-3 3-0.466-3-0.534-0.494-3z"/>
   <path id="path23408" style="opacity:.7;stroke-linejoin:round;stroke-opacity:.28962;stroke:#fff;stroke-width:.88674;fill:#eeeeec" d="m36.924 13.443c0.42447 1.0181 0.64726 2.145 0.64726 3.3195 0 4.6979-3.7519 8.5061-8.3803 8.5061-1.3517 0-2.6162-0.32154-3.7473-0.89902 1.2734 3.0542 4.2618 5.1867 7.733 5.1867 4.6283 0 8.3803-3.8083 8.3803-8.5061 0-3.3258-1.8911-6.2073-4.633-7.6071z"/>
   <path id="path6044" style="fill:url(#radialGradient6103);fill-rule:evenodd" d="m13.506 8-0.506 3l-3 0.42369 3 0.57631 0.54986 3 0.45014-3 3-0.46582-3-0.534-0.494-3z"/>
   <path id="path6048" style="fill:url(#radialGradient6105);fill-rule:evenodd" d="m19.506 15-0.506 3-3 0.424 3 0.576l0.54986 3 0.45014-3 3-0.46582-3-0.53418-0.494-3z"/>
   <path id="path6052" style="fill:url(#radialGradient6107);fill-rule:evenodd" d="m27.506 10.466-0.506 3l-3 0.42369 3 0.57631 0.54986 3 0.45014-3 3-0.466-3-0.534-0.494-3z"/>
  </g>
  <path id="rect6588" style="fill:url(#linearGradient6112)" d="m5 6h38v9.6l-38 8.4v-18z"/>
 </g>
</svg>
